Engine/Resources/Icons/Icons_Default/piece_grey.svg

<svg version="1.1"
    xmlns="http://www.w3.org/2000/svg"
    xmlns:xlink="http://www.w3.org/1999/xlink" width="512" height="512" viewBox="0 0 512 512">
    <title>piece icon</title>
    <desc>piece icon from the IconExperience.com G-Collection. Copyright by INCORS GmbH (www.incors.com).</desc>
    <defs>
        <linearGradient x1="0" y1="0" x2="448.00018" y2="480.00059" gradientUnits="userSpaceOnUse" id="color-1">
			<stop offset="0" stop-color="#c0c0c0"/>
			<stop offset="1" stop-color="#a8a8a8"/>
        </linearGradient>
    </defs>
    <g fill="url(#color-1)" fill-rule="evenodd" stroke="none" stroke-width="1" stroke-linecap="butt" stroke-linejoin="miter" stroke-miterlimit="10" stroke-dasharray="" stroke-dashoffset="0" font-family="none" font-weight="none" font-size="none" text-anchor="none" style="mix-blend-mode: normal">
        <path d="M120,112l101.5,0c18.5,0 22,-21 8.5,-29.5c-13.5,-8.5 -22,-21 -22,-34.5c0,-26.5 32,-48 72,-48c40,0 72,21.5 72,48c0,13.5 -8.5,26 -22,34.5c-13.5,8.5 -10,29.5 8.5,29.5l133.5,0c4.5,0 8,3.5 8,8l0,101.5c0,18.5 -21,22 -29.5,8.5c-8.5,-13.5 -21,-22 -34.5,-22c-26.5,0 -48,32 -48,72c0,40 21.5,72 48,72c13.5,0 26,-8.5 34.5,-22c8.5,-13.5 29.5,-10 29.5,8.5l0,133.5c0,4.5 -3.5,8 -8,8l-133.5,0c-18.5,0 -22,-21 -8.5,-29.5c13.5,-8.5 22,-21 22,-34.5c0,-26.5 -32,-48 -72,-48c-40,0 -72,21.5 -72,48c0,13.5 8.5,26 22,34.5c13.5,8.5 10,29.5 -8.5,29.5l-101.5,0c-4.5,0 -8,-3.5 -8,-8l0,-133.5c0,-18.5 -21,-22 -29.5,-8.5c-8.5,13.5 -21,22 -34.5,22c-26.5,0 -48,-32 -48,-72c0,-40 21.5,-72 48,-72c13.5,0 26,8.5 34.5,22c8.5,13.5 29.5,10 29.5,-8.5l0,-101.5c0,-4.5 3.5,-8 8,-8z" id="curve0"/>
    </g>
</svg>

<?xml version="1.0" encoding="UTF-8" standalone="no"?>
<!DOCTYPE svg PUBLIC "-//W3C//DTD SVG 1.1//EN" "http://www.w3.org/Graphics/SVG/1.1/DTD/svg11.dtd">
<svg width="100%" height="100%" viewBox="0 0 512 512" version="1.1" xmlns="http://www.w3.org/2000/svg" xmlns:xlink="http://www.w3.org/1999/xlink" xml:space="preserve" xmlns:serif="http://www.serif.com/" style="fill-rule:evenodd;clip-rule:evenodd;stroke-linejoin:round;stroke-miterlimit:2;">
    <g>
        <path id="curve0" d="M120,112L221.5,112C240,112 243.5,91 230,82.5C216.5,74 208,61.5 208,48C208,21.5 240,0 280,0C320,0 352,21.5 352,48C352,61.5 343.5,74 330,82.5C316.5,91 320,112 338.5,112L472,112C476.5,112 480,115.5 480,120L480,221.5C480,240 459,243.5 450.5,230C442,216.5 429.5,208 416,208C389.5,208 368,240 368,280C368,320 389.5,352 416,352C429.5,352 442,343.5 450.5,330C459,316.5 480,320 480,338.5L480,472C480,476.5 476.5,480 472,480L338.5,480C320,480 316.5,459 330,450.5C343.5,442 352,429.5 352,416C352,389.5 320,368 280,368C240,368 208,389.5 208,416C208,429.5 216.5,442 230,450.5C243.5,459 240,480 221.5,480L120,480C115.5,480 112,476.5 112,472L112,338.5C112,320 91,316.5 82.5,330C74,343.5 61.5,352 48,352C21.5,352 0,320 0,280C0,240 21.5,208 48,208C61.5,208 74,216.5 82.5,230C91,243.5 112,240 112,221.5L112,120C112,115.5 115.5,112 120,112Z" style="fill:rgb(128,128,128);"/>
    </g>
</svg>
